production/images/icons/search.svg

<svg width="17" height="17" viewBox="0 0 17 17" fill="none" xmlns="http://www.w3.org/2000/svg">
<g clip-path="url(#clip0)">
<path d="M16.4312 15.0735L12.6232 11.1129C13.6023 9.94901 14.1387 8.48455 14.1387 6.95999C14.1387 3.39801 11.2407 0.5 7.67874 0.5C4.11676 0.5 1.21875 3.39801 1.21875 6.95999C1.21875 10.522 4.11676 13.42 7.67874 13.42C9.01596 13.42 10.2903 13.0167 11.3798 12.251L15.2167 16.2416C15.3771 16.4082 15.5928 16.5 15.824 16.5C16.0428 16.5 16.2503 16.4166 16.4079 16.2649C16.7427 15.9428 16.7534 15.4085 16.4312 15.0735ZM7.67874 2.18522C10.3116 2.18522 12.4535 4.32713 12.4535 6.95999C12.4535 9.59286 10.3116 11.7348 7.67874 11.7348C5.04588 11.7348 2.90397 9.59286 2.90397 6.95999C2.90397 4.32713 5.04588 2.18522 7.67874 2.18522Z" fill="white"/>
</g>
<defs>
<clipPath id="clip0">
<rect width="16" height="16" fill="white" transform="translate(0.942383 0.5)"/>
</clipPath>
</defs>
</svg>

<svg width="17" height="17" viewBox="0 0 17 17" fill="none" xmlns="http://www.w3.org/2000/svg"><g clip-path="url(#clip0)"><path d="M16.431 15.073l-3.808-3.96A6.44 6.44 0 0014.14 6.96 6.467 6.467 0 007.679.5a6.467 6.467 0 00-6.46 6.46 6.467 6.467 0 006.46 6.46 6.39 6.39 0 003.7-1.169l3.838 3.99a.838.838 0 001.191.023.844.844 0 00.023-1.19zM7.68 2.185a4.78 4.78 0 014.774 4.775 4.78 4.78 0 01-4.774 4.775A4.78 4.78 0 012.904 6.96a4.78 4.78 0 014.775-4.775z" fill="#fff"/></g><defs><clipPath id="clip0"><path fill="#fff" transform="translate(.942 .5)" d="M0 0h16v16H0z"/></clipPath></defs></svg>
